X: 6292
T: Carpe Diem
R: reel
M: 4/4
K: Dmajor
|:e4 d3c|BdcB A2 AE|ABcd e2 ed|g2 gf e2 d2|
e2 defe dc|BdcB A2 AE|ABcd e2 dc|1 BdcB A2 EA:|2 BdcB A2 de||
|:a4 a2 ga|b2 ba gf e2|defd e2 e2|dcde fedc|
A2 a2 a2 ga|abba gfe2|defd e2 e2|1 d2 cB A2de:|2 d2 cB A2EA||

